assets/camera-video-fill.svg

<svg xmlns="http://www.w3.org/2000/svg" fill="none" viewBox="0 0 28 18">
  <path fill="#2A2238" fill-rule="evenodd" d="M0 3.5c0-.92826.368749-1.8185 1.02513-2.47487C1.6815.368749 2.57174 2e-8 3.5 2e-8h13.125c.8489-.00009985 1.6689.30833698 2.3073.86787398.6385.559536 1.0517 1.332026 1.1629 2.173626L25.5378.623c.2663-.1187.5582-.168939.8489-.14615.2908.022788.5712.117881.8159.276634.2446.158754.4457.376136.585.632386.1393.25624.2123.54323.2124.83488V15.2792c-.0003.2915-.0733.5782-.2124.8342-.1392.2561-.3401.4733-.5845.632s-.5246.2539-.8151.2769c-.2905.023-.5822-.027-.8485-.1453l-5.4443-2.4185c-.1112.8416-.5244 1.6141-1.1629 2.1736-.6384.5596-1.4584.868-2.3073.8679H3.5c-.92826 0-1.8185-.3687-2.47487-1.0251C.368749 15.8185 0 14.9283 0 14V3.5Z" clip-rule="evenodd"/>
</svg>

<svg width="28" height="18" viewBox="0 0 28 18" fill="none" xmlns="http://www.w3.org/2000/svg">
<path fill-rule="evenodd" clip-rule="evenodd" d="M0 3.5C0 2.57174 0.368749 1.6815 1.02513 1.02513C1.6815 0.368749 2.57174 2.42396e-08 3.5 2.42396e-08H16.625C17.4739 -9.9834e-05 18.2939 0.308337 18.9323 0.867874C19.5708 1.42741 19.984 2.1999 20.0952 3.0415L25.5378 0.623C25.8041 0.5043 26.096 0.454061 26.3867 0.47685C26.6775 0.499638 26.9579 0.594731 27.2026 0.753484C27.4472 0.912238 27.6483 1.12962 27.7876 1.38587C27.9269 1.64211 27.9999 1.9291 28 2.22075V15.2792C27.9997 15.5707 27.9267 15.8574 27.7876 16.1134C27.6484 16.3695 27.4475 16.5867 27.2031 16.7454C26.9587 16.9041 26.6785 16.9993 26.388 17.0223C26.0975 17.0453 25.8058 16.9953 25.5395 16.877L20.0952 14.4585C19.984 15.3001 19.5708 16.0726 18.9323 16.6321C18.2939 17.1917 17.4739 17.5001 16.625 17.5H3.5C2.57174 17.5 1.6815 17.1313 1.02513 16.4749C0.368749 15.8185 0 14.9283 0 14V3.5Z" fill="#2A2238"/>
</svg>
